**kern
*staff2
*tb16
=1-
*clefG2
*k[b-e-]
*M4/4
2r
.
.
.
.
.
.
.
4r
.
.
.
8.bn/ 8.dd/ 8.ff/
.
.
16cc\JJ 16ee-\JJ
=2
4cc\ 4ee-\
.
.
.
4r
.
.
.
4r
.
.
.
8.e-/L 8.f#/L 8.cc/L
.
.
16d/JJ 16g/JJ 16bn/JJ
=3
4d/ 4g/ 4bn/
.
.
.
4Bn/ 4d/ 4g/
.
.
.
4r
.
.
.
4c/ 4e-/ 4g/
.
.
.
=4
2B-/ 2d/ 2g/
.
.
.
.
.
.
.
4r
.
.
.
4c/ 4e-/ 4g/
.
.
.
=5
!!linebreak:original
2B-/ 2d/ 2g/
.
.
.
.
.
.
.
4r
.
.
.
4d/ 4g/
.
.
.
=6
4e-/ 4a/
.
.
.
4f/ 4b-/
.
.
.
4e-/ 4g/
.
.
.
4e-/ 4f/
.
.
.
=7
2d/ 2f/
.
.
.
.
.
.
.
4r
.
.
.
4e-/ 4g/
.
.
.
=8
2d/ 2f/
.
.
.
.
.
.
.
4r
.
.
.
4e-/ 4g/
.
.
.
=9
2d/ 2f/
.
.
.
.
.
.
.
4r
.
.
.
4e-/ 4a/
.
.
.
=10
!!linebreak:original
4d/ 4g/
.
.
.
4r
.
.
.
4c/ 4f#/
.
.
.
4r
.
.
.
=11
2B-/ 2g/
.
.
.
.
.
.
.
4r
.
.
.
8.bn/ 8.dd/ 8.ff/
.
.
16cc\JJ 16ee-\JJ
=12
4cc\ 4ee-\
.
.
.
4r
.
.
.
4r
.
.
.
8.e-/L 8.f#/L 8.cc/L
.
.
16d/JJ 16g/JJ 16bn/JJ
=13
4d/ 4g/ 4bn/
.
.
.
4Bn/ 4d/ 4g/
.
.
.
4r
.
.
.
4f#/ 4a/
.
.
.
=14
!!linebreak:original
*^
[2g/	4.d\ 4.e-\
.	.
.	.
.	.
.	.
.	.
.	8d\
.	.
4g/]	4c#\
.	.
.	.
.	.
4f#/	4d\
.	.
.	.
.	.
=15	=15
[2g/	4.d\
.	.
.	.
.	.
.	.
.	.
.	8c\
.	.
4g/]	4Bn\
.	.
.	.
.	.
*v	*v
4B-/ 4d/ 4g/
.
.
.
=16
4A/ 4d/ 4f#/
.
.
.
4r
.
.
.
4A/ 4en/ 4g/
.
.
.
4r
.
.
.
=17
4d/ 4f#/
.
.
.
4r
.
.
.
4r
.
.
.
4d/ 4f#/
.
.
.
=18
!!linebreak:original
*^
[2g/	4.c\
.	.
.	.
.	.
.	.
.	.
.	8d\
.	.
4g/]	4e-\
.	.
.	.
.	.
4f#/	4d\
.	.
.	.
.	.
=19	=19
[2g/	4.d\
.	.
.	.
.	.
.	.
.	.
.	8c\
.	.
4g/]	4B-\
.	.
.	.
.	.
*v	*v
4d/ 4g/
.
.
.
=20
4c/ 4e-/
.
.
.
4r
.
.
.
4B-/ 4en/
.
.
.
4r
.
.
.
=21
4A/ 4d/
.
.
.
4r
.
.
.
4r
.
.
.
4B-/ 4d/ 4g/
.
.
.
=22
2c/ 2e-/ 2g/
.
.
.
.
.
.
.
4B-/ 4d/ 4g/
.
.
.
4B-/ 4d/ 4g/
.
.
.
=23
!!linebreak:original
2c/ 2e-/ 2g/
.
.
.
.
.
.
.
4B-/ 4d/ 4g/
.
.
.
4d/ 4g/
.
.
.
=24
4e-/ 4g-/ 4a/
.
.
.
4f/ 4b-/
.
.
.
4e-/ 4g-/
.
.
.
8f/L
.
8e-/J
.
=25
4d/ 4f/
.
.
.
4r
.
.
.
4r
.
.
.
4d/ 4f/ 4b-/
.
.
.
=26
2e-/ 2g/ 2b-/
.
.
.
.
.
.
.
4d/ 4f/ 4b-/
.
.
.
4d/ 4f/ 4b-/
.
.
.
=27
2e-/ 2g/ 2b-/
.
.
.
.
.
.
.
4d/ 4f/ 4b-/
.
.
.
4e-/ 4a/
.
.
.
=28
!!linebreak:original
4d/ 4g/
.
.
.
4r
.
.
.
4c/ 4f#/
.
.
.
4r
.
.
.
=29
2B-/ 2g/
.
.
.
.
.
.
.
4r
.
.
.
8.bn/ 8.dd/ 8.ff/
.
.
16cc\JJ 16ee-\JJ
=30
4cc\ 4ee-\
.
.
.
4r
.
.
.
4r
.
.
.
8.en/ 8.f/ 8.cc/
.
.
16d/ 16g/ 16bn/
=31
4d/ 4g/ 4bn/
.
.
.
4Bn/ 4d/ 4g/
.
.
.
2r
.
.
.
.
.
.
.
==
*-
